X:78
T:Lord Howeâ€™s New Minuet. JBi.77
M:3/4
L:1/8
Q:1/4=120
S:James Biggins MS, Leeds, 1779
R:.Minuet
O:England
A:Yorkshire
N:Some inconsistencies.
Z:vmp.Chris Partington
K:G
G2GGGG|G2dBc2|D2DDDD|D2c>Bc2|!
BdBGG2|ABc4|BdBGG2|ABc4|((3edc) B2A2|â€^G4 in MSâ€G6||!
d2dddd|d2afg2|A2AAAA|A2gfg2|fafdd2|!
efTg4|fgfdd2|efTg4|((3bag) f2e2|d6||!
BGg2fe|dcB2c2|A2agfe|dcB4|BdBGG2|!
P:My interpretation
ABc4|BdBGG2|ABc3g|((3edc) B2A2|G6|]
P:Last four bars in MS written as follows
ABc4|BdBGG2|ABc4|g2((3edc) B2A2|G4|]

